static/logos/expedia-glyph-color.svg

<svg width="50" height="50" viewBox="0 0 50 50" fill="none" xmlns="http://www.w3.org/2000/svg">
<g clip-path="url(#clip0_1_2839)">
<path d="M46.8393 47.8148C45.4762 47.8148 44.6338 46.7493 44.6338 45.4457C44.6338 44.0498 45.5981 43.0767 46.8393 43.0767C48.0683 43.0767 49.0298 44.0498 49.0298 45.4457C49.0298 46.8446 48.0683 47.8148 46.8393 47.8148ZM46.8393 42.8088C45.4433 42.8088 44.25 43.8593 44.25 45.4457C44.25 46.9457 45.3274 48.0736 46.8393 48.0736C48.2171 48.0736 49.4167 47.0291 49.4167 45.4457C49.4167 43.8593 48.2171 42.8088 46.8393 42.8088Z" fill="#072F54"/>
<path d="M46.2184 45.2285V44.2671H46.8672C47.1946 44.2671 47.5815 44.3178 47.5815 44.7166C47.5815 45.1897 47.2243 45.2285 46.8167 45.2285H46.2184ZM48.0608 44.779C48.0608 44.1512 47.6739 43.8833 46.9239 43.8833H45.7422V46.9993H46.2572V45.6659H46.7334L47.5398 46.9993H48.1203L47.2453 45.6302C47.7184 45.5738 48.0608 45.3445 48.0608 44.779Z" fill="#072F54"/>
<path d="M29.0467 19.071L28.0467 16.2406L19.5645 4.90432L21.0883 4.52635L35.7133 17.1692L44.3205 14.7079C45.3324 14.446 46.4812 14.3894 47.3562 14.3954C44.6507 8.56206 39.7014 3.77337 33.1657 1.446C20.246 -3.15818 6.04064 3.59182 1.44541 16.5174C0.0227903 20.5144 -0.316494 24.6395 0.281721 28.5621L20.9008 21.3984L29.0467 19.071Z" fill="#072F54"/>
<path d="M48.2608 16.63C47.5048 17.1211 46.3946 17.7639 45.2934 18.1181L36.6684 20.5794L30.9125 39.0557L29.4184 39.5407L30.6327 25.4307L29.9541 22.4991L21.8709 24.8057L0.507812 29.8355C2.19829 38.0586 8.01973 45.2193 16.5048 48.2431C29.4275 52.8474 43.6268 46.0943 48.222 33.1776C50.2041 27.6093 50.0763 21.7996 48.2608 16.63Z" fill="#072F54"/>
<path d="M29.9538 22.5005L30.6355 25.4291L29.4181 39.5391L30.9121 39.0541L36.6681 20.5808L45.2931 18.1195C46.3943 17.7654 47.5045 17.1166 48.2605 16.6314C47.9955 15.8725 47.6919 15.1255 47.3557 14.3963C46.4807 14.3904 45.3319 14.4499 44.32 14.7058L35.7128 17.1731L21.0848 4.52429L19.564 4.90524L28.0431 16.2416L29.0462 19.0689L20.8973 21.4023L0.28125 28.56C0.346726 28.9886 0.421133 29.4141 0.507443 29.8367L21.8735 24.8069L29.9538 22.5005Z" fill="#FBC108"/>
</g>
<defs>
<clipPath id="clip0_1_2839">
<rect width="50" height="50" fill="white"/>
</clipPath>
</defs>
</svg>

<svg xmlns="http://www.w3.org/2000/svg" width="64" height="64" fill="none" viewBox="0 0 50 50"><g clip-path="url(#a)"><path fill="#072F54" d="M46.84 47.815c-1.364 0-2.206-1.066-2.206-2.37 0-1.395.964-2.368 2.205-2.368 1.23 0 2.19.973 2.19 2.369 0 1.399-.96 2.369-2.19 2.369Zm0-5.006c-1.397 0-2.59 1.05-2.59 2.637 0 1.5 1.077 2.628 2.59 2.628 1.377 0 2.577-1.045 2.577-2.628 0-1.587-1.2-2.637-2.578-2.637Z"/><path fill="#072F54" d="M46.218 45.228v-.96h.65c.327 0 .713.05.713.449 0 .473-.357.511-.764.511h-.599Zm1.843-.449c0-.628-.387-.896-1.137-.896h-1.182V47h.515v-1.333h.476l.807 1.333h.58l-.875-1.369c.473-.056.816-.286.816-.851ZM29.047 19.071l-1-2.83-8.483-11.337 1.524-.378L35.713 17.17l8.608-2.461c1.011-.262 2.16-.319 3.035-.313-2.705-5.833-7.655-10.622-14.19-12.949C20.246-3.158 6.04 3.592 1.446 16.517A24.722 24.722 0 0 0 .281 28.562L20.9 21.398l8.146-2.327ZM48.26 16.63c-.755.491-1.865 1.134-2.967 1.488l-8.625 2.461-5.755 18.477-1.495.485 1.215-14.11-.679-2.932-8.083 2.307-21.363 5.03c1.69 8.223 7.512 15.383 15.997 18.407 12.922 4.604 27.122-2.149 31.717-15.065a24.745 24.745 0 0 0 .039-16.548Z"/><path fill="#FBC108" d="m29.954 22.5.681 2.93-1.217 14.11 1.494-.486 5.756-18.473 8.625-2.462c1.101-.354 2.212-1.002 2.968-1.488a25.138 25.138 0 0 0-.905-2.235c-.875-.006-2.024.054-3.036.31l-8.607 2.467L21.085 4.524l-1.521.381 8.48 11.337 1.002 2.827-8.149 2.333L.281 28.56c.066.429.14.854.226 1.277l21.367-5.03 8.08-2.306Z"/></g><defs><clipPath id="a"><path fill="#fff" d="M0 0h50v50H0z"/></clipPath></defs></svg>
